icon-themes/breeze_svg/cmd/sc_preformattedparastyle.svg

<svg viewBox="0 0 16 16" xmlns="http://www.w3.org/2000/svg"><path d="m9.0898438 2-3.1464844 11.740234.9667968.259766 3.1464848-11.7402344zm-3.8046876 2-2.9609374 3.1445312-.3242188.3476563.3242188.3476563 2.9433593 3.1621092.7148438-.695312-2.6210938-2.8144535 2.6386719-2.796875z" fill="#4d4d4d"/><path d="m13 8a2 2 0 0 0 -2 2 2 2 0 0 0 2 2v2h1v-6z" fill="#1d99f3"/></svg>

<svg xmlns="http://www.w3.org/2000/svg" viewBox="0 0 16 16">
 <path 
     style="fill:#4d4d4d" 
     d="M 9.0898438 2 L 5.9433594 13.740234 L 6.9101562 14 L 10.056641 2.2597656 L 9.0898438 2 z M 5.2851562 4 L 2.3242188 7.1445312 L 2 7.4921875 L 2.3242188 7.8398438 L 5.2675781 11.001953 L 5.9824219 10.306641 L 3.3613281 7.4921875 L 6 4.6953125 L 5.2851562 4 z "
     />
 <path 
     style="fill:#1d99f3" 
     d="M 13 8 A 2 2 0 0 0 11 10 A 2 2 0 0 0 13 12 L 13 14 L 14 14 L 14 8 L 13 8 z "
     />
 </svg>
